svg/bank-of-america-light.svg

<svg xmlns="http://www.w3.org/2000/svg" xml:space="preserve" viewBox="0 0 512 512"><path d="M255.2 394.8C336 325.5 449.6 258.1 512 233.9c-9.6-6.2-24.6-15-41.6-24.6-80.4 26.5-174.4 85.4-258.3 152 14.3 10.8 29.3 21.9 43.1 33.5m-36.9-188.3c-11.9-5.8-25-11.2-35-15.8-30.4 15-70.1 37.7-120.1 73.5 10.8 5.8 22.3 12.7 34.6 19.6 38.5-28.4 77.4-55.3 120.5-77.3m72-33.1c-14.6-8.1-65.4-26.9-100.5-35-10.4 3.8-25 9.6-35 13.9 12.7 3.5 60.1 16.2 100.5 36.6 10.3-5.1 25-11.2 35-15.5m-172.1-5c-45 20.8-92.4 49.3-118.2 65.8 9.2 4.2 18.5 7.7 31.2 13.9 57-38.5 101.6-62 119.3-69.7-12.7-4.6-24.6-7.7-32.3-10m205.9-6.9c10.4-3.5 22.3-6.5 32.7-9.6-30-12.7-67.8-26.2-101.6-34.6-5.4 1.5-21.6 5.8-32.7 9.2 11.6 3.4 49.7 12.3 101.6 35M134.4 306.2c12.3 7.3 25.4 17.3 38.1 25.8 84.3-65.4 167.5-115.9 258.7-144.4-12.7-6.5-23.9-12.3-38.1-19.2-54.7 13.9-148.3 51.2-258.7 137.8" style="fill:#fff"/></svg>

<?xml version="1.0" encoding="utf-8"?>
<!-- Generator: Adobe Illustrator 28.2.0, SVG Export Plug-In . SVG Version: 6.00 Build 0)  -->
<svg version="1.1" id="Layer_1" xmlns="http://www.w3.org/2000/svg" xmlns:xlink="http://www.w3.org/1999/xlink" x="0px" y="0px"
	 viewBox="0 0 512 512" style="enable-background:new 0 0 512 512;" xml:space="preserve">
<style type="text/css">
	.st0{fill:#FFFFFF;}
</style>
<path class="st0" d="M255.2,394.8C336,325.5,449.6,258.1,512,233.9c-9.6-6.2-24.6-15-41.6-24.6c-80.4,26.5-174.4,85.4-258.3,152
	C226.4,372.1,241.4,383.2,255.2,394.8L255.2,394.8z M218.3,206.5c-11.9-5.8-25-11.2-35-15.8c-30.4,15-70.1,37.7-120.1,73.5
	c10.8,5.8,22.3,12.7,34.6,19.6C136.3,255.4,175.2,228.5,218.3,206.5z M290.3,173.4c-14.6-8.1-65.4-26.9-100.5-35
	c-10.4,3.8-25,9.6-35,13.9c12.7,3.5,60.1,16.2,100.5,36.6C265.6,183.8,280.3,177.7,290.3,173.4z M118.2,168.4
	c-45,20.8-92.4,49.3-118.2,65.8c9.2,4.2,18.5,7.7,31.2,13.9c57-38.5,101.6-62,119.3-69.7C137.8,173.8,125.9,170.7,118.2,168.4
	L118.2,168.4z M324.1,161.5c10.4-3.5,22.3-6.5,32.7-9.6c-30-12.7-67.8-26.2-101.6-34.6c-5.4,1.5-21.6,5.8-32.7,9.2
	C234.1,129.9,272.2,138.8,324.1,161.5z M134.4,306.2c12.3,7.3,25.4,17.3,38.1,25.8c84.3-65.4,167.5-115.9,258.7-144.4
	c-12.7-6.5-23.9-12.3-38.1-19.2C338.4,182.3,244.8,219.6,134.4,306.2z"/>
</svg>
